X:322
T: DU MAEDCHEN VOM LANDE
N: B0378
O: Europa, Mitteleuropa, Deutschland
R: Liebes - Lied, Liebes - Lust, Anmache
M: 3/4
L: 1/8
K: G
D2 | G2G2BG | D2D2
D2 | E2E2GE | D4
D2 | c2c2Ac | B3d
GB | A3cFA | G4

